assets/icons/24px/outline/triangle-left-24px.svg

<svg width="24" height="24" viewBox="0 0 24 24" fill="none" xmlns="http://www.w3.org/2000/svg">
<path d="M5.64697 13.7483L17.5287 20.3493C18.8524 21.0847 19.5143 21.4524 20.0071 21.1624C20.5 20.8723 20.5 20.1152 20.5 18.601L20.5 5.39903C20.5 3.88478 20.5 3.12765 20.0071 2.83764C19.5143 2.54764 18.8524 2.91533 17.5287 3.65071L5.64697 10.2517C4.25507 11.025 3.55913 11.4116 3.55913 12C3.55913 12.5884 4.25507 12.975 5.64697 13.7483Z" fill="white"/>
</svg>

<svg width="24" height="24" fill="none" xmlns="http://www.w3.org/2000/svg"><path d="M5.647 13.748l11.882 6.601c1.323.736 1.985 1.103 2.478.813.493-.29.493-1.047.493-2.561V5.399c0-1.514 0-2.271-.493-2.561-.493-.29-1.155.077-2.478.813l-11.882 6.6c-1.392.774-2.088 1.16-2.088 1.749 0 .588.696.975 2.088 1.748z" fill="#fff"/></svg>
